X:133
T:Dinny's Slide
R:Slide
M:12/8
L:1/8
K:G
B3 BAB d2B G3|GBd g2e d2 G2A|B3 {c}BAB d2B G2A|B2d cBA G3 G2A:|!
g3 {b}gfe d2B c2d|efg a2b a2g e2f|g2a gfe d2B c2d|e2d e2f g3 g2d:|

